X: 1
T: 世上只有妈妈好
M: 2/4
L: 1/8
Q: 100
K: C
%%stretchlast .7
%%staves {(PianoRightHand) (PianoLeftHand)}
V:PianoRightHand clef=treble
V:PianoLeftHand clef=bass
[V: PianoRightHand]
a3 g | e2 g2 | c'2 ag | a4  | %4
e2 ga | g2 ed | cA ge | d4 | %8
d3 e | g2 ga | e3 d | c4 | %16
g3 e | dc Ac | G4 | z4 | %20
[V: PianoLeftHand]
C,4 | z4 | F,4 | z4 |
C,4 | z4 | F,4 | z4 |
G,4 | z4 | C,4 | z4 |
G,4 | z4 | C,4 | z4 |
